!!!!SEGMENT: Snf0250-Sum_tuus_in_vita_I.krn
!!!id: Snf0250
!!!AGN: Motet
!!!voices: 4
!!!COM: Ludwig Senfl
!!!OTL: Sum tuus in vita I
**kern	**text	**kern	**text	**kern	**text	**kern	**text
*part4	*part4	*part3	*part3	*part2	*part2	*part1	*part1
*staff4	*staff4	*staff3	*staff3	*staff2	*staff2	*staff1	*staff1
*I"Bassus	*	*I"Tenor	*	*I"Altus	*	*I"Superius	*
*I'B	*	*I'T	*	*I'A	*	*I'S	*
*clefF4	*	*clefGv2	*	*clefGv2	*	*clefG2	*
*	*	*	*	*	*	*	*
*k[]	*	*k[]	*	*k[]	*	*k[]	*
*	*	*	*	*	*	*	*
*M2/1	*	*M2/1	*	*M2/1	*	*M2/1	*
*met(C|)	*	*met(C|)	*	*met(C|)	*	*met(C|)	*
!!section: Prima pars: Sum tuus in vita I
!!!OMD: Prima pars: Sum tuus in vita I
0r	.	0r	.	0d	Sum	0r	.
=1	=1	=1	=1	=1	=1	=1	=1
0r	.	0r	.	1c	tu-	0r	.
.	.	.	.	1c	-us	.	.
=2	=2	=2	=2	=2	=2	=2	=2
0D	Sum	0r	.	0f	in	0r	.
=3	=3	=3	=3	=3	=3	=3	=3
1C	tu-	0r	.	0e	vi-	0r	.
1C	-us	.	.	.	.	.	.
=4	=4	=4	=4	=4	=4	=4	=4
0F	in	0r	.	2.A	.	0a	Sum
.	.	.	.	4B	.	.	.
.	.	.	.	4c	.	.	.
.	.	.	.	4A	.	.	.
.	.	.	.	[2c	.	.	.
=5	=5	=5	=5	=5	=5	=5	=5
0E	vi-	0r	.	2c]	.	1g	tu-
.	.	.	.	4B	.	.	.
.	.	.	.	4A	.	.	.
.	.	.	.	1B	.	1g	-us
=6	=6	=6	=6	=6	=6	=6	=6
0AA	-ta,	0A	Sum	2.e	.	0cc	in
.	.	.	.	4c	.	.	.
.	.	.	.	2f	.	.	.
.	.	.	.	[2e	.	.	.
=7	=7	=7	=7	=7	=7	=7	=7
1r	.	1G	tu-	2e]	.	0b	vi-
.	.	.	.	4d	.	.	.
.	.	.	.	4c	.	.	.
1E	in	1G	-us	1B	-ta,	.	.
=8	=8	=8	=8	=8	=8	=8	=8
2.C	vi-	0c	in	1r	.	2.e	.
4D	.	.	.	.	.	4f	.
4E	.	.	.	2.E	in	4g	.
4C	.	.	.	.	.	4e	.
[2E	.	.	.	.	.	[2g	.
.	.	.	.	4F	.	.	.
=9	=9	=9	=9	=9	=9	=9	=9
2E]	.	0B	vi-	2G	.	2g]	.
4D	.	.	.	1A	vi-	4f	.
4C	.	.	.	.	.	4e	.
1BB	.	.	.	.	.	1d	.
.	.	.	.	2G	.	.	.
=10	=10	=10	=10	=10	=10	=10	=10
2.AA	.	0E	-ta,	2A	.	1c	.
.	.	.	.	2e	.	.	.
4BB	.	.	.	.	.	.	.
4C	.	.	.	2c	.	2.e	.
4AA	.	.	.	.	.	.	.
[2C	.	.	.	[2e	.	.	.
.	.	.	.	.	.	4f	.
=11	=11	=11	=11	=11	=11	=11	=11
2C]	.	1r	.	2e]	.	2g	.
4BB	.	.	.	4d	.	1a	.
4AA	.	.	.	4c	.	.	.
1E	.	1e	in	1B	.	.	.
.	.	.	.	.	.	2g	.
=12	=12	=12	=12	=12	=12	=12	=12
1F	.	2.c	vi-	1A	-ta,	2a	.
.	.	.	.	.	.	1cc	.
.	.	4d	.	.	.	.	.
[1C	.	4e	.	1E	.	.	.
.	.	4c	.	.	.	.	.
.	.	[2e	.	.	.	4b	.
.	.	.	.	.	.	4a	.
=13	=13	=13	=13	=13	=13	=13	=13
2C]	.	2e]	.	0e	.	2g	.
4BB	.	4d	.	.	.	1a	.
4AA	.	4c	.	.	.	.	.
1E	.	1B	.	.	.	.	.
.	.	.	.	.	.	2g#i	.
=14	=14	=14	=14	=14	=14	=14	=14
1AA	-ta,	0A	-ta,	1r	.	1a	-ta,
1r	.	.	.	2.c	tu-	1r	.
.	.	.	.	4B	.	.	.
=15	=15	=15	=15	=15	=15	=15	=15
1A	tu-	1r	.	4c	.	1e	tu-
.	.	.	.	4d	.	.	.
.	.	.	.	1e	.	.	.
1F	-a	1A	tu-	.	.	1f	-a
.	.	.	.	2d	-a	.	.
=16	=16	=16	=16	=16	=16	=16	=16
0E	sunt	1B	-a	0e	sunt	0g	sunt
.	.	[1c	sunt	.	.	.	.
=17	=17	=17	=17	=17	=17	=17	=17
1A	me-	1c]	.	2r	.	1e	me-
.	.	.	.	1e	me-	.	.
1F	-a	1A	me-	.	.	1f	-a
.	.	.	.	2d	-a	.	.
=18	=18	=18	=18	=18	=18	=18	=18
0E	fu-	1B	-a	1e	fu-	0g	fu-
.	.	[1c	fu-	2e	-ne-	.	.
.	.	.	.	2e	-ra,	.	.
=19	=19	=19	=19	=19	=19	=19	=19
1A	-ne-	1c]	.	2r	.	1e	-ne-
.	.	.	.	1e	Chri-	.	.
1F	-ra,	1A	-ne-	.	.	1f	-ra,
.	.	.	.	2d	.	.	.
=20	=20	=20	=20	=20	=20	=20	=20
1E	Chri-	1B	-ra,	1e	-ste,	2.g	Chri-
.	.	.	.	.	.	4f	.
[1A	.	2.c	Chri-	1r	.	4e	.
.	.	.	.	.	.	4d	.
.	.	.	.	.	.	[2f	.
.	.	4B	.	.	.	.	.
=21	=21	=21	=21	=21	=21	=21	=21
2A]	.	4A	.	1r	.	4f]	.
.	.	4G	.	.	.	4e	.
2G	.	2.B	.	.	.	1e	.
1F	.	.	.	1A	tu-	.	.
.	.	4A	.	.	.	.	.
.	.	[2A	.	.	.	2d	.
=22	=22	=22	=22	=22	=22	=22	=22
1E	.	2A]	.	1B	-a	0e	-ste,
.	.	2G#i	.	.	.	.	.
[1AA	-ste,	1A	-ste,	[1c	sunt	.	.
=23	=23	=23	=23	=23	=23	=23	=23
1AA]	.	1E	tu-	1c]	.	1r	.
1D	tu-	1F	-a	1A	me-	1d	tu-
=24	=24	=24	=24	=24	=24	=24	=24
1GG	-a	0G	sunt	1B	-a	1d	-a
[1C	sunt	.	.	[1c	fu-	[1e	sunt
=25	=25	=25	=25	=25	=25	=25	=25
1C]	.	1E	me-	1c]	.	1e]	.
1D	me-	1F	-a	1A	-ne-	1d	me-
=26	=26	=26	=26	=26	=26	=26	=26
1GG	-a	0G	fu-	1B	-ra,	1d	-a
1C	fu-	.	.	[1c	Chri-	1e	fu-
=27	=27	=27	=27	=27	=27	=27	=27
2C	-ne-	1E	-ne-	2c]	.	2e	-ne-
2C	-ra,	.	.	1A	.	2e	-ra,
1D	Chri-	1F	-ra,	.	.	1d	Chri-
.	.	.	.	2B	.	.	.
=28	=28	=28	=28	=28	=28	=28	=28
1.C	.	2.G	Chri-	2.c	.	1e	-ste,
.	.	4F	.	4B	.	.	.
.	.	4E	.	4A	.	1r	.
.	.	4D	.	4G	.	.	.
[2D	.	[2F	.	[2B	.	.	.
=29	=29	=29	=29	=29	=29	=29	=29
4D]	.	4F]	.	4B]	.	0r	.
4C	.	4E	.	4A	.	.	.
2AA	.	1E	.	1A	.	.	.
1BB	.	.	.	.	.	.	.
.	.	2D	.	2G#i	.	.	.
=30	=30	=30	=30	=30	=30	=30	=30
1AA	-ste,	2E	-ste,	2.A	.	0r	.
.	.	1e	Chri-	.	.	.	.
.	.	.	.	4B	.	.	.
1A	Chri-	.	.	4c	.	.	.
.	.	.	.	4d	.	.	.
.	.	2c	.	4e	.	.	.
.	.	.	.	4f	.	.	.
=31	=31	=31	=31	=31	=31	=31	=31
1.G	.	2.d	.	2.g	.	0r	.
.	.	4c	.	4f	.	.	.
.	.	4B	.	4e	.	.	.
.	.	4A	.	4d	.	.	.
[2A	.	[2c	.	[2f	.	.	.
=32	=32	=32	=32	=32	=32	=32	=32
4A]	.	4c]	.	4f]	.	0r	.
4G	.	4B	.	4e	.	.	.
2E	.	1B	.	1e	.	.	.
1F	.	.	.	.	.	.	.
.	.	2A	.	2d	.	.	.
=33	=33	=33	=33	=33	=33	=33	=33
0E	.	1B	-ste,	0e	-ste,	1r	.
.	.	2r	.	.	.	1b	da
.	.	2G	da	.	.	.	.
=34	=34	=34	=34	=34	=34	=34	=34
1AA	-ste,	1A	pre-	1r	.	2cc	pre-
.	.	.	.	.	.	2a	-cor
1r	.	1E	-cor,	1e	da	1b	im-
=35	=35	=35	=35	=35	=35	=35	=35
0r	.	0r	.	2f	pre-	2a	-pe-
.	.	.	.	2d	-cor	2a	-ri-
.	.	.	.	1e	im-	1g	-i,
=36	=36	=36	=36	=36	=36	=36	=36
0r	.	1B	da	2d	-pe-	2r	.
.	.	.	.	2d	-ri-	2b	im-
.	.	2c	pre-	1c	-i,	2e	-pe-
.	.	2A	-cor	.	.	[2a	.
=37	=37	=37	=37	=37	=37	=37	=37
1E	da	1B	im-	2r	.	2a]	.
.	.	.	.	2e	im-	2g#i	-ri-
2F	pre-	2A	-pe-	2c	-pe-	1a	-i,
2D	-cor	2A	-ri-	2d	-ri-	.	.
=38	=38	=38	=38	=38	=38	=38	=38
1E	im-	1G	-i,	2B	-i,	0r	.
.	.	.	.	2e	da	.	.
2D	-pe-	2r	.	2f	pre-	.	.
2D	-ri-	2B	da	2d	-cor	.	.
=39	=39	=39	=39	=39	=39	=39	=39
1C	-i	2c	pre-	1e	im-	1r	.
.	.	2A	-cor	.	.	.	.
1r	.	1B	im-	2d	-pe-	1b	da
.	.	.	.	2d	-ri-	.	.
=40	=40	=40	=40	=40	=40	=40	=40
0r	.	2A	-pe-	1c	-i,	2cc	pre-
.	.	2A	-ri-	.	.	2a	-cor
.	.	1G	-i	2r	.	1b	im-
.	.	.	.	2e	da	.	.
=41	=41	=41	=41	=41	=41	=41	=41
0r	.	1r	.	2f	pre-	2a	-pe-
.	.	.	.	2d	-cor	2a	-ri-
.	.	2r	.	1e	im-	1g	-i
.	.	2c	sce-	.	.	.	.
=42	=42	=42	=42	=42	=42	=42	=42
1BB	sce-	4B	-ptra	2d	-pe-	0r	.
.	.	4A	.	.	.	.	.
.	.	4G	.	2d	-ri-	.	.
.	.	4F	.	.	.	.	.
2C	-ptra	2E	.	1c	-i	.	.
2AA	vi-	2A	vi-	.	.	.	.
=43	=43	=43	=43	=43	=43	=43	=43
1BB	-de-	2D	-de-	2r	.	1b	sce-
.	.	1G	-re	2d	sce-	.	.
2AA	-re	.	.	2e	-ptra	2cc	-ptra
2AA	tu-	2F	tu-	2f	vi-	2a	vi-
=44	=44	=44	=44	=44	=44	=44	=44
2GG	-i,	2G	-i,	4e	-de-	1b	-de-
.	.	.	.	2d	.	.	.
2G	sce-	2B	sce-	.	.	.	.
.	.	.	.	4g	.	.	.
2A	-ptra	2c	-ptra	2e	.	2a	-re
2F	vi-	2A	vi-	2f	.	2a	tu-
=45	=45	=45	=45	=45	=45	=45	=45
2G	-de-	1B	-de-	2d	-re	1g	-i,
2E	.	.	.	2e	tu-	.	.
2F	-re	2A	-re	2c	.	1r	.
2D	tu-	2A	tu-	2d	.	.	.
=46	=46	=46	=46	=46	=46	=46	=46
2E	-i,	1G	-i,	2B	.	1e	sce-
2C	sce-	.	.	2c	-i,	.	.
2D	-ptra	1r	.	2A	sce-	2f	-ptra
2BB	vi-	.	.	2B	-ptra	2d	vi-
=47	=47	=47	=47	=47	=47	=47	=47
1C	-de-	1E	sce-	2G	vi-	1e	-de-
.	.	.	.	1A	-de-	.	.
2D	-re	2F	-ptra	.	.	2d	-re
2BB	tu-	2D	vi-	2B	-re	2d	tu-
=48	=48	=48	=48	=48	=48	=48	=48
1C	.	1E	-de-	2G	tu-	1c	-i.
.	.	.	.	1c	.	.	.
1GG	-i,	2D	-re	.	.	1r	.
.	.	2D	tu-	2B	.	.	.
=49	=49	=49	=49	=49	=49	=49	=49
2r	.	1C	-i,	2e	.	0r	.
2.AA	tu-	.	.	2c	.	.	.
.	.	2r	.	2.e	.	.	.
4BB	.	.	.	.	.	.	.
4C	.	2c	tu-	.	.	.	.
4D	.	.	.	4f	.	.	.
=50	=50	=50	=50	=50	=50	=50	=50
2.E	.	2B	.	1g	-i.	0r	.
.	.	2.e	.	.	.	.	.
4F	.	.	.	.	.	.	.
2G	.	.	.	1r	.	.	.
.	.	4d	.	.	.	.	.
[2A	.	4c	.	.	.	.	.
.	.	4B	.	.	.	.	.
=51	=51	=51	=51	=51	=51	=51	=51
4A]	.	2c	.	0r	.	0r	.
4G	.	.	.	.	.	.	.
4F	.	2.d	.	.	.	.	.
4E	.	.	.	.	.	.	.
2F	.	.	.	.	.	.	.
.	.	4c	.	.	.	.	.
[2G	.	4B	.	.	.	.	.
.	.	4A	.	.	.	.	.
=52	=52	=52	=52	=52	=52	=52	=52
2G]	.	4B	.	0r	.	0r	.
.	.	4G	.	.	.	.	.
4F	.	1c	.	.	.	.	.
4E	.	.	.	.	.	.	.
1D	-i.	.	.	.	.	.	.
.	.	2B	.	.	.	.	.
=53	=53	=53	=53	=53	=53	=53	=53
2r	.	1c	-i.	1e	Cur	1g	Cur
2C	Cur	.	.	.	.	.	.
2C	et-	1r	.	2e	et-	2g	et-
2C	-e-	.	.	2e	-e-	2g	-e-
=54	=54	=54	=54	=54	=54	=54	=54
1F	-nim	1c	Cur	1f	-nim	1a	-nim
2A	mo-	2c	et-	2e	mo-	2cc	mo-
2A	-ri-	2c	-e-	2f	-ri-	2cc	-ri-
=55	=55	=55	=55	=55	=55	=55	=55
1G	-ens	1d	-nim	2g	-ens	1b	-ens
.	.	.	.	2G	tot	.	.
1D	tot	2f	mo-	1d	vul-	1a	tot
.	.	2f	-ri-	.	.	.	.
=56	=56	=56	=56	=56	=56	=56	=56
2E	vul-	1e	-ens	2B	-ne-	1g	vul-
2C	-ne-	.	.	2c	-ra	.	.
1D	-ra	1d	tot	2A	sae-	2f	-ne-
.	.	.	.	[2A	-va	2f	-ra
=57	=57	=57	=57	=57	=57	=57	=57
2AA	sae-	1c	vul-	2A]	.	1e	sae-
2C	.	.	.	2G	.	.	.
2GG	-va	2B	-ne-	2r	.	2d	-va
2G	tu-	2B	-ra	2d	tu-	2g	tu-
=58	=58	=58	=58	=58	=58	=58	=58
1F	-li-	1A	sae-	2f	-li-	1a	-li-
.	.	.	.	2c	-sti,	.	.
2E	.	2G	-va	2r	.	2b	.
2A	.	2c	tu-	2A	tu-	2cc	.
=59	=59	=59	=59	=59	=59	=59	=59
2G	.	2d	-li-	2B	-li-	2b	.
2E	.	1e	.	2c	.	2g	.
1F	.	.	.	1A	.	1a	.
.	.	2d	.	.	.	.	.
=60	=60	=60	=60	=60	=60	=60	=60
1E	-sti,	1e	-sti,	1B	-sti,	0g	-sti,
1r	.	1r	.	1r	.	.	.
=61	=61	=61	=61	=61	=61	=61	=61
1F	si	1c	si	1A	si	1r	.
1C	non	1c	non	1e	non	1g	si
=62	=62	=62	=62	=62	=62	=62	=62
1G	sum	1d	sum	1B	sum	1g	non
1F	re-	1f	re-	1c	re-	1a	sum
=63	=63	=63	=63	=63	=63	=63	=63
1C	-gni	1e	-gni	2c	-gni	1cc	re-
.	.	.	.	1.g	por-	.	.
1G	por-	1d	por-	.	.	1b	-gni
=64	=64	=64	=64	=64	=64	=64	=64
2A	-ti-	2c	-ti-	2e	-ti-	1a	por-
2F	-o	2c	-o	2f	-o	.	.
1G	par-	1B	par-	1d	par-	2g	-ti-
.	.	.	.	.	.	2g	-o
=65	=65	=65	=65	=65	=65	=65	=65
2D	-va	2A	-va	2d	-va	1f	par-
2D	tu-	2A	tu-	2d	tu-	.	.
2E	.	2.G	.	2B	.	2e	-va
2C	.	.	.	2c	.	2e	tu-
.	.	4A	.	.	.	.	.
=66	=66	=66	=66	=66	=66	=66	=66
1G	.	4B	.	4G	.	2.d	.
.	.	4c	.	4A	.	.	.
.	.	1d	.	4B	.	.	.
.	.	.	.	4c	.	4e	.
2D	.	.	.	2d	.	4f	.
.	.	.	.	.	.	4g	.
[2F	.	4c	.	2A	.	[2a	.
.	.	4B	.	.	.	.	.
=67	=67	=67	=67	=67	=67	=67	=67
2F]	.	2A	.	1c	-i,	2a]	.
4E	.	1c	.	.	.	4g	.
4D	.	.	.	.	.	4f	.
2C	.	.	.	2r	.	2e	.
[2E	.	4B	.	2G	tu-	[2g	.
.	.	4A	.	.	.	.	.
=68	=68	=68	=68	=68	=68	=68	=68
2E]	.	2G	.	2B	.	4g]	.
.	.	.	.	.	.	4f	.
2AA	.	2A	.	2.c	.	1e	.
1A	-i,	1F	.	.	.	.	.
.	.	.	.	4B	.	.	.
.	.	.	.	[2A	.	2d	.
=69	=69	=69	=69	=69	=69	=69	=69
1r	.	1E	-i,	2A]	.	[0e	-i?
.	.	.	.	2G	.	.	.
1AA	tu-	2r	.	2A	-i,	.	.
.	.	2A	tu-	2c	tu-	.	.
=70	=70	=70	=70	=70	=70	=70	=70
0E	-i,	2A	-i,	2c	-i,	0e]	.
.	.	4G	.	4B	.	.	.
.	.	4F	.	4A	.	.	.
.	.	1G	.	1B	.	.	.
=71	=71	=71	=71	=71	=71	=71	=71
2r	.	2r	.	1r	.	0r	.
2A	tu-	2c	tu-	.	.	.	.
2A	-i,	2c	-i,	2r	.	.	.
4G	.	4B	.	2e	tu-	.	.
4F	.	4A	.	.	.	.	.
=72	=72	=72	=72	=72	=72	=72	=72
1G	.	1B	.	2e	-i,	0r	.
.	.	.	.	4d	.	.	.
.	.	.	.	4c	.	.	.
2r	.	2r	.	1d	.	.	.
2G	tu-	2B	tu-	.	.	.	.
=73	=73	=73	=73	=73	=73	=73	=73
2G	-i,	2B	-i,	2r	.	0r	.
4F	.	4A	.	2d	tu-	.	.
4E	.	4G	.	.	.	.	.
1F	.	1A	.	2d	-i,	.	.
.	.	.	.	4c	.	.	.
.	.	.	.	4B	.	.	.
=74	=74	=74	=74	=74	=74	=74	=74
2r	.	2r	.	1c	.	0r	.
2F	tu-	2A	tu-	.	.	.	.
2F	-i,	2A	-i,	2r	.	.	.
4E	.	4G	.	2c	tu-	.	.
4D	.	4F	.	.	.	.	.
=75	=75	=75	=75	=75	=75	=75	=75
1E	.	1G	.	2c	-i?	0r	.
.	.	.	.	4B	.	.	.
.	.	.	.	4A	.	.	.
2r	.	2r	.	1B	.	.	.
2E	tu-	2G	tu-	.	.	.	.
=76	=76	=76	=76	=76	=76	=76	=76
2E	-i?	2G	-i?	2r	.	0r	.
4D	.	4F	.	2c	Cur	.	.
4C	.	4E	.	.	.	.	.
1D	.	1F	.	2A	ri-	.	.
.	.	.	.	2B	.	.	.
=77	=77	=77	=77	=77	=77	=77	=77
0C	Cur	1G	.	2.c	.	0e	Cur
.	.	.	.	4B	.	.	.
.	.	1r	.	4A	.	.	.
.	.	.	.	4G	.	.	.
.	.	.	.	[2G	.	.	.
=78	=78	=78	=78	=78	=78	=78	=78
1GG	ri-	0B	Cur	2G]	.	1d	ri-
.	.	.	.	4F	.	.	.
.	.	.	.	4E	.	.	.
1GG	-gi-	.	.	2D	.	1d	-gi-
.	.	.	.	2G	-gi-	.	.
=79	=79	=79	=79	=79	=79	=79	=79
0AA	-do	1A	ri-	1E	-do	0c	-do
.	.	1A	-gi-	2r	.	.	.
.	.	.	.	[2e	la-	.	.
=80	=80	=80	=80	=80	=80	=80	=80
1E	la-	0G	-do	2e]	.	1g	la-
.	.	.	.	4d	.	.	.
.	.	.	.	4c	.	.	.
1E	-tu-	.	.	2B	.	1g	-tu-
.	.	.	.	2e	-tu-	.	.
=81	=81	=81	=81	=81	=81	=81	=81
1D	-it	1d	la-	1A	-it	0a	-it
1F	.	1d	-tu-	1r	.	.	.
=82	=82	=82	=82	=82	=82	=82	=82
1E	tu-	0e	-it	2B	tu-	1g	tu-
.	.	.	.	2B	-a	.	.
1C	-a	.	.	1c	vi-	1g	-a
=83	=83	=83	=83	=83	=83	=83	=83
3%2F	vi-	1d	tu-	1A	-ta	0a	vi-
3%2D	.	.	.	.	.	.	.
.	.	1d	-a	2r	.	.	.
3%2F	.	.	.	.	.	.	.
.	.	.	.	2A	in-	.	.
=84	=84	=84	=84	=84	=84	=84	=84
1E	-ta	0e	vi-	1B	-clu-	1g	-ta
1C	in-	.	.	1c	.	1g	in-
=85	=85	=85	=85	=85	=85	=85	=85
0D	-clu-	1d	-ta	1A	-sa	0f	-clu-
.	.	1d	in-	2A	se-	.	.
.	.	.	.	[2A	-pul-	.	.
=86	=86	=86	=86	=86	=86	=86	=86
1AA	-sa	0c	-clu-	2A]	.	1e	-sa
.	.	.	.	4G	.	.	.
.	.	.	.	4F	.	.	.
1C	se-	.	.	2.E	.	1e	se-
.	.	.	.	4F	.	.	.
=87	=87	=87	=87	=87	=87	=87	=87
0GG	-pul-	1B	-sa	2G	.	0d	-pul-
.	.	.	.	2D	.	.	.
.	.	1B	se-	1G	.	.	.
=88	=88	=88	=88	=88	=88	=88	=88
1AA	.	0A	-pul-	1E	.	[0c	-cro,
1FF	.	.	.	1F	.	.	.
=89	=89	=89	=89	=89	=89	=89	=89
0C	-cro,	0G	-cro,	[0E	-cro,	0c]	.
=90	=90	=90	=90	=90	=90	=90	=90
1r	.	1r	.	1E]	.	1r	.
1C	si	1G	si	1r	.	1e	si
=91	=91	=91	=91	=91	=91	=91	=91
1GG	non	1G	non	1B	si	1d	non
1AA	est	2E	est	1A	non	1c	est
.	.	[2e	me-	.	.	.	.
=92	=92	=92	=92	=92	=92	=92	=92
2E	me-	2e]	.	1G	est	2g	me-
2E	-a	2e	-a	.	.	2g	-a
1F	mors	1A	mors	2d	me-	1a	mors
.	.	.	.	2d	-a	.	.
=93	=93	=93	=93	=93	=93	=93	=93
1C	mor-	1c	mor-	1e	mors	1g	mor-
2F	-te	2A	-te	1d	mor-	2a	-te
2F	fu-	2A	fu-	.	.	2a	fu-
=94	=94	=94	=94	=94	=94	=94	=94
1C	-ga-	1c	-ga-	2e	-te	1g	-ga-
.	.	.	.	2e	fu-	.	.
2D	-ta	2A	-ta	1d	-ga-	2f	-ta
2D	tu-	2A	tu-	.	.	2f	tu-
=95	=95	=95	=95	=95	=95	=95	=95
1AA	-a,	1A	-a,	2c	-ta	2e	-a,
.	.	.	.	2c	tu-	1a	tu-
1E	.	1r	.	1B	-a,	.	.
.	.	.	.	.	.	2g#i	.
=96	=96	=96	=96	=96	=96	=96	=96
2r	.	2r	.	2r	.	2a	.
2C	tu-	2c	fu-	1e	tu-	2e	.
1D	.	2A	-ga-	.	.	1f	.
.	.	2B	-ta	2d	.	.	.
=97	=97	=97	=97	=97	=97	=97	=97
2AA	.	2c	tu-	2e	.	[0e	-a?
2E	.	2G	.	2B	.	.	.
2C	.	[1A	.	1c	.	.	.
2AA	.	.	.	.	.	.	.
=98	=98	=98	=98	=98	=98	=98	=98
*	*	*	*	*	*	*	*
0E	-a,	2A]	.	0B	.	0e_	.
.	.	4G#i	.	.	.	.	.
.	.	4F#i	.	.	.	.	.
.	.	1G#i	-a,	.	.	.	.
=99	=99	=99	=99	=99	=99	=99	=99
2r	.	2r	.	1A	-a?	0e]	.
1A	tu-	2c	fu-	.	.	.	.
.	.	2A	-ga-	1r	.	.	.
2G	.	2B	-ta	.	.	.	.
=100	=100	=100	=100	=100	=100	=100	=100
2A	.	2c	tu-	2r	.	0r	.
2E	.	2G	.	1e	Er-	.	.
1F	.	1A	.	.	.	.	.
.	.	.	.	2d	-go	.	.
=101	=101	=101	=101	=101	=101	=101	=101
1E	-a?	1G	-a?	2e	.	0g	Er-
.	.	.	.	2B	.	.	.
1E	Er-	1r	.	4c	.	.	.
.	.	.	.	4B	.	.	.
.	.	.	.	2e	.	.	.
=102	=102	=102	=102	=102	=102	=102	=102
1A	-go	0c	Er-	2r	.	1a	-go
.	.	.	.	2.e	mi-	.	.
1A	mi-	.	.	.	.	1a	mi-
.	.	.	.	4d	.	.	.
.	.	.	.	4e	.	.	.
.	.	.	.	4f	.	.	.
=103	=103	=103	=103	=103	=103	=103	=103
0G	-hi	1d	-go	1g	.	0b	-hi
.	.	1d	mi-	2g	-hi	.	.
.	.	.	.	[2g	cer-	.	.
=104	=104	=104	=104	=104	=104	=104	=104
0C	cer-	0e	-hi	2g]	.	0cc	cer-
.	.	.	.	2G	-tam	.	.
.	.	.	.	1c	prae-	.	.
=105	=105	=105	=105	=105	=105	=105	=105
0F	-tam	0f	cer-	1c	-stes,	0a	-tam
.	.	.	.	2r	.	.	.
.	.	.	.	2c	o	.	.
=106	=106	=106	=106	=106	=106	=106	=106
0G	prae-	0d	-tam	2B	Chri-	0b	prae-
.	.	.	.	2.B	-ste,	.	.
.	.	.	.	4c	.	.	.
.	.	.	.	4d	.	.	.
.	.	.	.	4B	.	.	.
=107	=107	=107	=107	=107	=107	=107	=107
0C	-stes,	0e	prae-	1c	.	0g	-stes,
.	.	.	.	2r	.	.	.
.	.	.	.	2e	sa-	.	.
=108	=108	=108	=108	=108	=108	=108	=108
0F	o	0c	-stes,	1.f	-lu-	0a	o
.	.	.	.	4e	.	.	.
.	.	.	.	4d	.	.	.
=109	=109	=109	=109	=109	=109	=109	=109
0A	Chri-	1r	.	2.c	.	0cc	Chri-
.	.	.	.	4d	.	.	.
.	.	1c	o	2e	.	.	.
.	.	.	.	2f	.	.	.
=110	=110	=110	=110	=110	=110	=110	=110
1G	-ste,	1d	Chri-	1g	.	1b	-ste,
1D	sa-	2d	-ste,	1f	.	2a	sa-
.	.	2A	sa-	.	.	[2a	-lu-
=111	=111	=111	=111	=111	=111	=111	=111
0E	-lu-	2c	-lu-	0e	.	2a]	.
.	.	4B	.	.	.	4g#i	.
.	.	4A	.	.	.	4f#i	.
.	.	1B	.	.	.	1g#i	.
=112	=112	=112	=112	=112	=112	=112	=112
1AA	-tem,	0A	-tem,	1c	-tem,	0a	-tem,
2r	.	.	.	2r	.	.	.
[2AA	sa-	.	.	[2c	sa-	.	.
=113	=113	=113	=113	=113	=113	=113	=113
4AA]	.	0r	.	4c]	.	0r	.
4BB	.	.	.	4d	.	.	.
2C	.	.	.	2e	.	.	.
4D	.	.	.	1f	.	.	.
4E	.	.	.	.	.	.	.
4F	.	.	.	.	.	.	.
4G	.	.	.	.	.	.	.
=114	=114	=114	=114	=114	=114	=114	=114
2A	.	0r	.	2e	.	0r	.
2E	.	.	.	1e	-lu-	.	.
1F	-lu-	.	.	.	.	.	.
.	.	.	.	2d	.	.	.
=115	=115	=115	=115	=115	=115	=115	=115
1E	-tem,	1r	.	1e	-tem,	0g	er-
1C	er-	[1c	er-	1r	.	.	.
=116	=116	=116	=116	=116	=116	=116	=116
1F	-go	1c]	.	1f	er-	1a	-go
1D	tu-	1d	-go	2f	-go	1a	tu-
.	.	.	.	2f	tu-	.	.
=117	=117	=117	=117	=117	=117	=117	=117
1G	-o	1d	tu-	1g	-o	0b	-o
1E	.	[1e	-o	1g	lo-	.	.
=118	=118	=118	=118	=118	=118	=118	=118
0A	lo-	1e]	.	0c	-tum	0cc	lo-
.	.	[1f	lo-	.	.	.	.
=119	=119	=119	=119	=119	=119	=119	=119
0D	-tum	1f]	.	2r	.	0a	-tum
.	.	.	.	4d	san-	.	.
.	.	.	.	4e	.	.	.
.	.	[1d	-tum	4f	.	.	.
.	.	.	.	4g	.	.	.
.	.	.	.	4a	.	.	.
.	.	.	.	4f	.	.	.
=120	=120	=120	=120	=120	=120	=120	=120
0G	san-	1d]	.	2.g	.	0b	san-
.	.	.	.	4g	-gui-	.	.
.	.	[1e	san-	1g	-ne,	.	.
=121	=121	=121	=121	=121	=121	=121	=121
1C	-gui-	1e]	.	2r	.	1g	-gui-
.	.	.	.	2e	Chri-	.	.
1F	-ne,	1c	-gui-	1f	.	1a	-ne,
=122	=122	=122	=122	=122	=122	=122	=122
0A	Chri-	1c	-ne,	2f	-ste,	0cc	Chri-
.	.	.	.	1e	iu-	.	.
.	.	2r	.	.	.	.	.
.	.	[2e	Chri-	4d	.	.	.
.	.	.	.	4c	.	.	.
=123	=123	=123	=123	=123	=123	=123	=123
1G	-ste,	2e]	.	2.g	.	1b	-ste,
.	.	1d	-ste,	.	.	.	.
.	.	.	.	4G	.	.	.
1F	iu-	.	.	1A	.	2a	iu-
.	.	2c	iu-	.	.	[2a	-ves,
=124	=124	=124	=124	=124	=124	=124	=124
0E	-ves,	2c	-ves.	0e	.	2a]	.
.	.	4B	.	.	.	4g#i	.
.	.	4A	.	.	.	4f#i	.
.	.	1B	.	.	.	1g#i	.
=125	=125	=125	=125	=125	=125	=125	=125
1AA	.	[0Al	.	1c	-ves,	2a	.
.	.	.	.	.	.	2.cc	iu-
2r	.	.	.	2r	.	.	.
.	.	.	.	.	.	4b	.
[2AA	iu-	.	.	[2c	iu-	[2a	.
=126	=126	=126	=126	=126	=126	=126	=126
4AA]	.	0A_	.	4c]	.	4a]	.
4BB	.	.	.	4d	.	4g	.
2C	.	.	.	2e	.	2e	.
4D	.	.	.	1d	-ves,	1f	.
4E	.	.	.	.	.	.	.
4F	.	.	.	.	.	.	.
4G	.	.	.	.	.	.	.
=127	=127	=127	=127	=127	=127	=127	=127
2A	.	0A_	.	2r	.	[0e	.
2AA	-ves,	.	.	2.c	iu-	.	.
2r	.	.	.	.	.	.	.
.	.	.	.	4B	.	.	.
[2AA	iu-	.	.	[2A	.	.	.
=128	=128	=128	=128	=128	=128	=128	=128
4AA]	.	0A_	.	4A]	.	1e]	.
4BB	.	.	.	4G	.	.	.
2C	.	.	.	2E	.	.	.
2.FF	.	.	.	1F	.	1c	.
4GG	.	.	.	.	.	.	.
=129	=129	=129	=129	=129	=129	=129	=129
[0AAl	-ves.	0A_	.	1E	-ves,	[0c	-ves.
.	.	.	.	[1e	iu-	.	.
=130	=130	=130	=130	=130	=130	=130	=130
0AA_	.	0A_	.	1e]	.	1c]	.
.	.	.	.	1c	.	1r	.
=131	=131	=131	=131	=131	=131	=131	=131
00AA]	.	00A]	.	00cl	-ves.	00el	.
==	==	==	==	==	==	==	==
*-	*-	*-	*-	*-	*-	*-	*-
!!!system-decoration: [*]
!!!RDF**kern: i = editorial accidental
!!!RDF**kern: l = terminal long
!!!!PTL: <i> New Senfl Edition: Motets for Four Voices (N-V) </i>
!!!PPR: Hollitzer Verlag
!!!PC#: Denkmäler der Tonkunst in Österreich 163.2
!!!PDT: 2022
!!!PED: Scott Lee Edwards, Stefan Gasch, and Sonja Tröster
!!!YEC: Copyright 2022 Denkmäler der Tonkunst in Österreich
!!!YEM: CC-BY-NC 4.0 (https://creativecommons.org/licenses/by-nc/4.0/legalcode)
!!!EED: Benjamin Ory
!!!EEV: 2024/3/4
!!!verovio: header encoded
!!!header-left: @{PTL}\n@{PED}, eds.\n@{PC#} (@{PDT})&nbsp;\n
!!!header-right:
!!!header-center:
